assets/Japanese reserved button/Flat/japanese_reserved_button_flat.svg

<svg width="32" height="32" viewBox="0 0 32 32" fill="none" xmlns="http://www.w3.org/2000/svg">
<path d="M2 6C2 3.79086 3.79086 2 6 2H26C28.2091 2 30 3.79086 30 6V26C30 28.2091 28.2091 30 26 30H6C3.79086 30 2 28.2091 2 26V6Z" fill="#00D26A"/>
<path d="M9 6C9 5.44772 9.44772 5 10 5C10.5523 5 11 5.44772 11 6V9.875C11 9.94404 11.056 10 11.125 10H13C13.5523 10 14 10.4477 14 11C14 11.5523 13.5523 12 13 12H11.125C11.056 12 11 12.056 11 12.125V14.5351C11 14.6173 11.078 14.6771 11.1574 14.6558L12.6389 14.2588C13.1724 14.1159 13.7207 14.4325 13.8637 14.9659C14.0066 15.4994 13.69 16.0477 13.1566 16.1907L11.0926 16.7437C11.038 16.7583 11 16.8079 11 16.8644V25.5C11 26.3284 10.3284 27 9.5 27H8C7.44772 27 7 26.5523 7 26C7 25.4477 7.44772 25 8 25H8.875C8.94404 25 9 24.944 9 24.875V17.4673C9 17.3851 8.92204 17.3253 8.84265 17.3466L7.36101 17.7436C6.82754 17.8865 6.2792 17.5699 6.13626 17.0365C5.99332 16.503 6.3099 15.9547 6.84337 15.8117L8.90735 15.2587C8.962 15.2441 9 15.1945 9 15.138V12.125C9 12.056 8.94404 12 8.875 12H7C6.44772 12 6 11.5523 6 11C6 10.4477 6.44772 10 7 10H8.875C8.94404 10 9 9.94404 9 9.875V6Z" fill="white"/>
<path d="M17 5C16.4477 5 16 5.44772 16 6V14C16 14.5523 16.4477 15 17 15H26C26.5523 15 27 14.5523 27 14V12C27 11.4477 26.5523 11 26 11C25.4477 11 25 11.4477 25 12V12.875C25 12.944 24.944 13 24.875 13H18.125C18.056 13 18 12.944 18 12.875V11.291C18 11.2324 18.0407 11.1816 18.0979 11.1689L26.21 9.37054C26.7492 9.25101 27.0894 8.717 26.9699 8.17781C26.8503 7.63861 26.3163 7.29841 25.7771 7.41795L18.1521 9.10839C18.074 9.12569 18 9.0663 18 8.98635V6C18 5.44772 17.5523 5 17 5Z" fill="white"/>
<path d="M16 17C16 16.4477 16.4477 16 17 16H26C26.5523 16 27 16.4477 27 17V26C27 26.5523 26.5523 27 26 27C25.49 27 25.0691 26.6182 25.0077 26.1248C24.9992 26.0562 24.944 26 24.875 26H18.125C18.056 26 18.0008 26.0562 17.9923 26.1248C17.9309 26.6182 17.51 27 17 27C16.4477 27 16 26.5523 16 26V17ZM18 23.875C18 23.944 18.056 24 18.125 24H24.875C24.944 24 25 23.944 25 23.875V22.125C25 22.056 24.944 22 24.875 22H18.125C18.056 22 18 22.056 18 22.125V23.875ZM24.875 18H18.125C18.056 18 18 18.056 18 18.125V19.875C18 19.944 18.056 20 18.125 20H24.875C24.944 20 25 19.944 25 19.875V18.125C25 18.056 24.944 18 24.875 18Z" fill="white"/>
</svg>

<svg xmlns="http://www.w3.org/2000/svg" width="32" height="32" fill="none"><path fill="#00D26A" d="M2 6a4 4 0 0 1 4-4h20a4 4 0 0 1 4 4v20a4 4 0 0 1-4 4H6a4 4 0 0 1-4-4V6Z"/><path fill="#fff" d="M9 6a1 1 0 0 1 2 0v3.875c0 .069.056.125.125.125H13a1 1 0 1 1 0 2h-1.875a.125.125 0 0 0-.125.125v2.41c0 .082.078.142.157.12l1.482-.396a1 1 0 0 1 .518 1.932l-2.064.553a.125.125 0 0 0-.093.12V25.5A1.5 1.5 0 0 1 9.5 27H8a1 1 0 1 1 0-2h.875A.125.125 0 0 0 9 24.875v-7.408a.125.125 0 0 0-.157-.12l-1.482.397a1 1 0 0 1-.518-1.932l2.064-.553A.125.125 0 0 0 9 15.138v-3.013A.125.125 0 0 0 8.875 12H7a1 1 0 1 1 0-2h1.875A.125.125 0 0 0 9 9.875V6ZM17 5a1 1 0 0 0-1 1v8a1 1 0 0 0 1 1h9a1 1 0 0 0 1-1v-2a1 1 0 1 0-2 0v.875a.125.125 0 0 1-.125.125h-6.75a.125.125 0 0 1-.125-.125v-1.584c0-.059.04-.11.098-.122L26.21 9.37a1 1 0 1 0-.433-1.953l-7.625 1.69A.125.125 0 0 1 18 8.986V6a1 1 0 0 0-1-1ZM16 17a1 1 0 0 1 1-1h9a1 1 0 0 1 1 1v9a1 1 0 0 1-1.992.125c-.009-.069-.064-.125-.133-.125h-6.75c-.069 0-.124.056-.133.125A1 1 0 0 1 16 26v-9Zm2 6.875c0 .069.056.125.125.125h6.75a.125.125 0 0 0 .125-.125v-1.75a.125.125 0 0 0-.125-.125h-6.75a.125.125 0 0 0-.125.125v1.75ZM24.875 18h-6.75a.125.125 0 0 0-.125.125v1.75c0 .069.056.125.125.125h6.75a.125.125 0 0 0 .125-.125v-1.75a.125.125 0 0 0-.125-.125Z"/></svg>
